X: 36305
T: Seamus O'Donnell's
R: reel
M: 4/4
K: Edorian
A|:BEED G2AF|DEED FAdc|BEEF G2AF|DBAF B2ed|
BEED GEAF|DEED FAAd|Beed BAFz|1 B/c/dAF FEED:|2 B/c/dAF FEed||
dege bege|defz afdf|dege beg/a/b|agfa geed|
deeg bzge|defz afdf|efga bfff|afdf deed|
ezge Bege|d3a afdf|efge beg/a/b|agfa gzed|
eeeg bege|defz afdf|efga bfff|afdf efed||

